assets/images/logo.svg

<svg width="117" height="30" viewBox="0 0 117 30" fill="none" xmlns="http://www.w3.org/2000/svg">
<g clip-path="url(#clip0_15_78)">
<path d="M46.2074 25.6177C46.0713 25.688 46.0248 25.7327 45.97 25.7364C43.7406 25.9108 41.5879 25.7528 39.7063 24.3442C38.6629 23.5645 37.6796 22.7136 36.9246 21.6601C35.3297 19.4353 33.7978 17.1657 32.244 14.9117C31.8734 14.3731 31.5082 13.8299 31.154 13.2803C30.8089 12.7444 30.8591 12.6485 31.4817 12.6084C32.8511 12.5171 34.1612 12.2331 35.3818 11.5895C37.7618 10.3351 38.6346 7.64837 37.4039 5.2437C36.7913 4.05506 35.725 3.38314 34.4497 3.15947C33.3779 2.9714 32.2732 2.95497 31.1813 2.90385C30.5596 2.87372 29.9343 2.94036 29.3107 2.93489C28.9282 2.93489 28.8187 3.091 28.8241 3.458C28.8552 5.72512 28.8756 7.99225 28.8853 10.2594C28.8999 14.3676 28.9191 18.4758 28.8972 22.584C28.8972 23.2897 29.0989 23.7654 29.6951 24.136C30.2118 24.4546 30.6829 24.8463 31.1704 25.2096C31.3008 25.3044 31.4058 25.4298 31.4762 25.5748C28.5649 25.688 25.6718 25.7209 22.7787 25.6661C22.765 25.6095 22.7522 25.552 22.7385 25.4954C22.8608 25.3968 22.9795 25.2927 23.1037 25.1987C23.7035 24.7568 24.3024 24.3122 24.9077 23.8786C25.066 23.7745 25.1941 23.6307 25.2792 23.4615C25.3643 23.2922 25.4033 23.1036 25.3924 22.9145C25.3717 16.5848 25.3605 10.2551 25.3586 3.92542C25.3586 3.46895 25.2034 3.15308 24.831 2.88924C24.2348 2.46837 23.6661 2.00825 23.0882 1.56183C22.975 1.47053 22.8745 1.37194 22.6801 1.19665C22.8449 1.16585 23.0113 1.14421 23.1785 1.13184C26.5409 1.1437 29.9032 1.13914 33.2656 1.18205C35.023 1.20396 36.7621 1.42306 38.3899 2.14702C40.0177 2.87098 41.251 3.9455 41.6518 5.76133C42.1877 8.18975 41.2027 10.6136 39.1495 12.0305C38.2768 12.6431 37.3173 13.1216 36.3029 13.4501C36.1057 13.5131 35.9177 13.6035 35.694 13.6948C35.7403 13.8209 35.7968 13.943 35.8629 14.0599C37.4587 16.3423 38.9943 18.6648 40.6768 20.8796C42.0383 22.6851 43.7584 24.1898 45.729 25.2991C45.8787 25.3785 46.012 25.4862 46.2074 25.6177Z" fill="white"/>
<path d="M113.776 24.5316C113.776 24.7955 113.726 25.0593 113.691 25.4108C113.277 25.2026 112.952 25.0529 112.64 24.8785C112.101 24.5764 111.575 24.5508 110.982 24.769C108.688 25.6128 106.238 25.9498 103.801 25.7568C101.203 25.5596 98.7633 24.8238 96.6681 23.2325C94.2662 21.4067 92.7607 18.9956 92.3134 15.9884C91.9199 13.3482 91.9628 10.7353 93.0501 8.22841C94.0662 5.88856 95.6118 4.00243 97.8129 2.67502C100.718 0.924012 103.883 0.405462 107.207 0.750552C108.261 0.859191 109.307 1.10751 110.334 1.37044C110.617 1.45332 110.914 1.47616 111.207 1.43749C111.5 1.39881 111.781 1.29948 112.033 1.14586C113.007 0.58166 113.012 0.598093 113.017 1.70731C113.024 3.60987 113.038 5.51243 113.046 7.41499C113.046 7.58936 113.031 7.76464 113.022 7.93993C111.404 5.94699 110.198 4.47077 109.695 3.78881C109.425 3.39841 109.062 3.08123 108.639 2.86583C108.422 2.76082 108.192 2.68706 107.954 2.64672C105.294 2.18569 102.708 2.32263 100.292 3.68291C98.284 4.81586 97.0707 6.57965 96.4581 8.75153C95.537 12.008 95.7625 15.2215 97.1885 18.2862C98.4547 21.0132 100.523 22.9002 103.547 23.4781C105.514 23.8533 107.495 23.6324 109.421 23.0974C110.757 22.7258 110.625 22.9824 110.62 21.4806C110.616 20.187 110.587 18.8933 110.606 17.5997C110.613 17.1432 110.46 16.8812 110.042 16.6822C108.38 15.8889 106.733 15.0663 105.083 14.252C104.969 14.1963 104.865 14.1196 104.758 14.0529C104.764 14.0146 104.771 13.9772 104.778 13.9388C104.931 13.9152 105.085 13.8997 105.24 13.8923C107.887 13.8923 110.535 13.8977 113.182 13.8813C113.578 13.8813 113.742 14.0228 113.751 14.3962C113.751 14.5934 113.771 14.7915 113.771 14.9887C113.773 18.1694 113.774 21.3504 113.776 24.5316Z" fill="white"/>
<path d="M19.8198 25.0857C19.8198 25.6463 19.7696 25.6947 19.2283 25.6965C13.5997 25.7129 7.96994 25.7266 2.33895 25.7376C1.94912 25.7376 1.5593 25.681 1.17039 25.6508C1.15578 25.6116 1.14208 25.5732 1.12839 25.5349C1.23247 25.4436 1.33106 25.345 1.44244 25.261C2.04407 24.8219 2.64113 24.3736 3.25827 23.9573C3.62345 23.7099 3.77408 23.4005 3.76495 22.9622C3.74395 21.9735 3.75399 20.9839 3.75217 19.9943C3.74304 14.6993 3.73726 9.40422 3.73482 4.10919C3.73482 3.56143 3.56411 3.18896 3.12042 2.87856C2.54709 2.47869 2.00846 2.02861 1.45705 1.60045C1.34111 1.50915 1.23429 1.40782 1.03345 1.23527C1.30733 1.21427 1.46253 1.19328 1.62046 1.19236C6.94593 1.18141 12.2714 1.17197 17.5969 1.16406C18.7426 1.16406 18.7462 1.16863 18.7599 2.3244C18.7764 3.6792 18.7879 5.03369 18.7946 6.38788C18.7946 6.65628 18.7508 6.9256 18.728 7.19492L18.6276 7.23691C18.5253 7.12097 18.4158 7.0105 18.3226 6.88726C17.5165 5.81821 16.6958 4.7592 15.9152 3.6719C15.5427 3.15244 15.1009 2.93059 14.4545 2.94155C12.2334 2.97533 10.0122 2.96346 7.79009 2.97076C7.1839 2.97076 7.16929 2.99724 7.17294 3.57878C7.18694 6.2269 7.19851 8.87442 7.20764 11.5213C7.20764 12.1768 7.20764 12.1786 7.87043 12.1823C9.49819 12.1896 11.126 12.1823 12.7537 12.2069C13.2604 12.2142 13.6256 12.0353 13.915 11.6272C14.3714 10.9827 14.848 10.3491 15.3182 9.71006C15.4241 9.56764 15.54 9.43161 15.7317 9.19334C15.7929 9.44804 15.8577 9.5932 15.8586 9.7411C15.8684 11.9632 15.8732 14.1847 15.8732 16.4055C15.8638 16.5682 15.844 16.7301 15.8139 16.8903L15.6906 16.9232C15.5126 16.6831 15.3337 16.443 15.1566 16.2029C14.7512 15.6505 14.3431 15.1009 13.9424 14.5459C13.8209 14.3605 13.654 14.2091 13.4577 14.1063C13.2613 14.0034 13.042 13.9523 12.8204 13.958C11.1013 13.9671 9.38225 13.9771 7.66319 13.9762C7.31171 13.9762 7.18481 14.1104 7.18755 14.4646C7.20703 17.4469 7.21707 20.4291 7.21768 23.4114C7.21768 23.7766 7.32906 23.9254 7.7134 23.9236C10.437 23.9053 13.1603 23.8977 15.8833 23.9007C16.0574 23.9108 16.2311 23.8753 16.3873 23.7979C16.5436 23.7204 16.6769 23.6036 16.7743 23.4589C17.6872 22.2018 18.6075 20.9556 19.5277 19.7067C19.5892 19.6417 19.6547 19.5807 19.724 19.5241C19.768 19.7657 19.7984 20.0095 19.8153 20.2545C19.8238 21.8625 19.8253 23.4729 19.8198 25.0857Z" fill="white"/>
<path d="M59.6713 25.1759C58.6142 25.6032 57.5141 25.7839 56.3775 25.8268C54.3334 25.9063 52.335 25.7136 50.416 24.9596C50.1211 24.8436 49.8618 24.8893 49.588 25.0298C49.1415 25.2581 48.6851 25.4681 48.2259 25.6689C47.962 25.7839 47.8205 25.6771 47.8205 25.385C47.8169 23.1331 47.8135 20.8812 47.8105 18.6293C47.8257 18.5567 47.8487 18.486 47.8789 18.4184C48.0132 18.5644 48.1254 18.6694 48.2167 18.7899C49.1507 20.0288 50.0928 21.2631 51.0094 22.5147C51.4496 23.123 52.0948 23.5516 52.8262 23.7216C54.3188 24.1096 55.8087 24.2986 57.3351 23.9316C59.1053 23.5052 60.1296 22.3358 60.3478 20.5327C60.5615 18.7616 59.9352 17.3895 58.5147 16.3332C57.379 15.486 56.0899 14.9474 54.8109 14.3786C53.8979 13.9705 52.9731 13.5698 52.0721 13.1288C50.867 12.5418 49.818 11.7448 48.9982 10.6712C47.3549 8.51848 47.291 3.97571 51.0067 1.95904C52.9293 0.91555 54.9643 0.595108 57.0969 0.830646C58.0737 0.939285 59.0423 1.16934 59.9982 1.41219C60.5624 1.5546 61.0654 1.56739 61.5766 1.26886C61.8706 1.09722 62.191 0.970326 62.6019 0.774044V8.14053L62.5106 8.19165C62.388 8.07695 62.2725 7.95501 62.1646 7.82648C61.0788 6.37856 59.9964 4.9273 58.9173 3.47268C58.6324 3.08742 58.2782 2.81354 57.8163 2.71403C56.4843 2.42828 55.1596 2.40546 53.8596 2.88475C51.821 3.63701 50.6753 6.08003 51.5407 7.93786C51.7498 8.38611 52.1186 8.79784 52.503 9.12467C53.3465 9.8322 54.3352 10.3115 55.3395 10.7607C56.9344 11.4746 58.543 12.1693 60.0867 12.9782C61.5766 13.756 62.8137 14.8953 63.3979 16.4985C64.7372 20.1402 63.4719 23.6394 59.6713 25.1759Z" fill="white"/>
<path d="M90.4537 25.2299C90.3296 25.1432 90.2054 25.0564 90.0758 24.9788C88.8497 24.2375 87.8701 23.3182 87.3744 21.8986C86.9234 20.6095 86.309 19.378 85.7667 18.1209C83.2367 12.2537 80.7066 6.3869 78.1766 0.520372C78.099 0.337785 77.9867 0.173458 77.8908 0L77.7466 0.00821609C77.574 0.389823 77.3923 0.766866 77.2289 1.15213C74.439 7.70153 71.6503 14.2522 68.8628 20.804C68.2794 22.1734 67.6951 23.5428 67.1346 24.9277C66.9411 25.4025 67.0305 25.5093 67.5281 25.5102C69.4757 25.515 71.4233 25.515 73.3709 25.5102C73.5241 25.5004 73.6766 25.4808 73.8273 25.4517L73.841 25.3385C73.6867 25.2527 73.5352 25.1605 73.3773 25.082C72.4114 24.6 71.4473 24.1125 70.4732 23.646C70.1427 23.4871 70.0551 23.2908 70.2176 22.9594C70.3518 22.6856 70.4559 22.3998 70.5727 22.1186C71.3031 20.364 72.0425 18.6111 72.7702 16.8537C72.9153 16.5031 73.1052 16.2557 73.5306 16.2576C75.8732 16.2643 78.2164 16.2643 80.5602 16.2576C80.6976 16.2476 80.8343 16.2837 80.9488 16.3603C81.0632 16.4369 81.1488 16.5495 81.192 16.6803C82.0629 18.8056 82.9391 20.9291 83.8203 23.0507C83.9335 23.3246 83.876 23.5118 83.6378 23.6779C83.1521 24.0184 82.6728 24.3672 82.1926 24.7159C81.9525 24.8903 81.7169 25.0711 81.4622 25.2637C81.853 25.5321 89.9032 25.544 90.4893 25.3121C90.472 25.2838 90.472 25.2445 90.4537 25.2299ZM73.789 14.4573C74.8334 11.8791 75.8887 9.37768 76.935 6.86893L77.0902 6.85615C78.1337 9.36307 79.1762 11.8709 80.2526 14.4573H73.789Z" fill="white"/>
<path d="M116.126 27.8091H0V30.0001H116.126V27.8091Z" fill="white"/>
</g>
<defs>
<clipPath id="clip0_15_78">
<rect width="116.126" height="30" fill="white"/>
</clipPath>
</defs>
</svg>

<svg width="117" height="30" fill="none" xmlns="http://www.w3.org/2000/svg"><g clip-path="url(#a)" fill="#fff"><path d="M46.207 25.618c-.136.07-.182.115-.237.118-2.23.175-4.382.017-6.264-1.392-1.043-.78-2.026-1.63-2.781-2.684-1.595-2.225-3.127-4.494-4.681-6.748a64.984 64.984 0 0 1-1.09-1.632c-.345-.536-.295-.631.328-.672 1.37-.09 2.68-.375 3.9-1.019 2.38-1.254 3.253-3.94 2.022-6.345-.613-1.189-1.679-1.86-2.954-2.085-1.072-.188-2.177-.204-3.269-.255-.621-.03-1.247.036-1.87.03-.383 0-.492.157-.487.524.031 2.267.052 4.534.061 6.801.015 4.109.034 8.217.012 12.325 0 .706.202 1.181.798 1.552.517.319.988.71 1.475 1.074.13.094.236.22.306.365-2.911.113-5.804.146-8.697.091l-.04-.17c.122-.1.24-.203.365-.297.6-.442 1.198-.887 1.804-1.32a1.08 1.08 0 0 0 .484-.965 6393.4 6393.4 0 0 1-.033-18.989c0-.456-.156-.772-.528-1.036-.596-.42-1.165-.88-1.743-1.327-.113-.091-.213-.19-.408-.365.165-.031.331-.053.498-.065 3.363.012 6.725.007 10.088.05 1.757.022 3.496.241 5.124.965 1.628.724 2.861 1.799 3.262 3.614.536 2.429-.45 4.853-2.502 6.27a10.683 10.683 0 0 1-2.847 1.42c-.197.062-.385.152-.609.244.046.126.103.248.169.365 1.596 2.282 3.131 4.605 4.814 6.82a16.41 16.41 0 0 0 5.052 4.42c.15.078.283.186.478.318ZM113.776 24.532c0 .264-.05.527-.085.879-.414-.208-.739-.358-1.051-.533-.539-.302-1.065-.327-1.658-.109a16.93 16.93 0 0 1-7.181.988c-2.598-.197-5.038-.933-7.133-2.524-2.402-1.826-3.907-4.237-4.355-7.245-.393-2.64-.35-5.253.737-7.76 1.016-2.34 2.562-4.226 4.763-5.553 2.905-1.751 6.07-2.27 9.394-1.924 1.054.108 2.1.357 3.127.62a2.118 2.118 0 0 0 1.699-.225c.974-.564.979-.548.984.561.007 1.903.021 3.805.029 5.708 0 .174-.015.35-.024.525-1.618-1.993-2.824-3.47-3.327-4.151a2.864 2.864 0 0 0-1.056-.923 2.548 2.548 0 0 0-.685-.22c-2.66-.46-5.246-.323-7.662 1.037-2.008 1.133-3.221 2.897-3.834 5.069-.921 3.256-.695 6.47.73 9.534 1.267 2.727 3.335 4.614 6.359 5.192 1.967.375 3.948.154 5.874-.38 1.336-.372 1.204-.116 1.199-1.617-.004-1.294-.033-2.588-.014-3.881.007-.457-.146-.719-.564-.918-1.662-.793-3.309-1.616-4.959-2.43-.114-.056-.218-.132-.325-.2l.02-.113c.153-.024.307-.04.462-.047 2.647 0 5.295.006 7.942-.01.396 0 .56.14.569.514 0 .197.02.395.02.593l.005 9.543ZM19.82 25.086c0 .56-.05.609-.592.61-5.628.017-11.258.03-16.89.042-.389 0-.779-.057-1.168-.087l-.042-.116c.104-.091.203-.19.314-.274.602-.44 1.2-.887 1.816-1.304.365-.247.516-.556.507-.995-.021-.988-.011-1.978-.013-2.968-.009-5.295-.015-10.59-.017-15.885 0-.548-.17-.92-.615-1.23-.573-.4-1.112-.85-1.663-1.279-.116-.09-.223-.192-.424-.365.274-.02.43-.042.587-.043 5.326-.01 10.651-.02 15.977-.028 1.146 0 1.15.005 1.163 1.16.016 1.355.028 2.71.035 4.064 0 .268-.044.538-.067.807l-.1.042c-.103-.116-.212-.226-.305-.35-.806-1.069-1.627-2.128-2.408-3.215-.372-.52-.814-.741-1.46-.73-2.222.033-4.443.021-6.665.029-.606 0-.62.026-.617.608.014 2.648.026 5.295.035 7.942 0 .656 0 .658.662.661 1.628.008 3.256 0 4.884.025.506.007.872-.172 1.161-.58.456-.644.933-1.278 1.403-1.917.106-.142.222-.278.414-.517.06.255.126.4.127.548.01 2.222.014 4.444.014 6.665-.01.162-.029.324-.06.484l-.122.033-.534-.72c-.406-.553-.814-1.102-1.215-1.657a1.302 1.302 0 0 0-1.122-.588c-1.719.01-3.438.02-5.157.018-.351 0-.478.134-.475.489.019 2.982.03 5.964.03 8.946 0 .366.111.514.495.513 2.724-.019 5.447-.026 8.17-.023a1.004 1.004 0 0 0 .891-.442c.913-1.257 1.834-2.503 2.754-3.752.061-.065.127-.126.196-.183.044.242.074.485.091.73.009 1.608.01 3.219.005 4.832ZM59.671 25.176c-1.057.427-2.157.608-3.294.65-2.044.08-4.042-.112-5.961-.866-.295-.116-.554-.07-.828.07-.447.228-.903.438-1.362.639-.264.115-.405.008-.405-.284-.004-2.252-.008-4.504-.01-6.756a1.04 1.04 0 0 1 .068-.21c.134.145.246.25.338.37.934 1.24 1.876 2.474 2.792 3.726a3.112 3.112 0 0 0 1.817 1.207c1.493.388 2.983.577 4.51.21 1.77-.427 2.794-1.596 3.012-3.4.214-1.77-.413-3.142-1.833-4.199-1.136-.847-2.425-1.386-3.704-1.954-.913-.409-1.838-.81-2.739-1.25-1.205-.587-2.254-1.384-3.074-2.458-1.643-2.153-1.707-6.695 2.009-8.712C52.929.916 54.964.595 57.097.831c.977.108 1.945.338 2.901.581.564.143 1.067.155 1.579-.143.294-.172.614-.299 1.025-.495v7.367l-.091.05a4.183 4.183 0 0 1-.346-.365c-1.086-1.447-2.169-2.899-3.248-4.353-.285-.386-.639-.66-1.1-.759-1.333-.286-2.657-.309-3.957.17-2.039.753-3.185 3.196-2.32 5.054.21.448.579.86.963 1.187.843.707 1.832 1.187 2.837 1.636 1.594.714 3.203 1.408 4.747 2.217 1.49.778 2.727 1.917 3.31 3.52 1.34 3.642.075 7.141-3.726 8.678ZM90.454 25.23c-.124-.087-.249-.174-.378-.251-1.226-.741-2.206-1.66-2.702-3.08-.45-1.29-1.065-2.521-1.607-3.778L78.177.52c-.078-.183-.19-.348-.286-.521l-.144.008c-.173.382-.355.759-.518 1.144-2.79 6.55-5.579 13.1-8.366 19.652-.584 1.37-1.168 2.739-1.728 4.124-.194.474-.105.581.393.582 1.948.005 3.895.005 5.843 0 .153-.01.306-.03.456-.058l.014-.114c-.154-.085-.306-.178-.464-.256-.966-.482-1.93-.97-2.904-1.436-.33-.159-.418-.355-.255-.687.134-.273.238-.56.355-.84.73-1.755 1.47-3.508 2.197-5.265.145-.35.335-.598.76-.596 2.343.006 4.686.006 7.03 0a.618.618 0 0 1 .632.422c.87 2.126 1.747 4.25 2.628 6.37.114.275.056.462-.182.628-.486.34-.965.69-1.445 1.038-.24.174-.476.355-.73.548.39.268 8.44.28 9.026.048-.017-.028-.017-.068-.035-.082ZM73.789 14.457c1.044-2.578 2.1-5.08 3.146-7.588l.155-.013 3.163 7.601h-6.464ZM116.126 27.81H0V30h116.126v-2.19Z"/></g><defs><clipPath id="a"><path fill="#fff" d="M0 0h116.126v30H0z"/></clipPath></defs></svg>
